X: 4614
T: Bourrée
R: reel
M: 4/4
K: Emajor
|:[EB]2|[Ac]2(AB cde2)|(GBe2) (ede2)|FGAB cAB2|(AGFG) E2ge|
fd(Bc def)a|ge(Bd efg)b|!p!fd(Bc def)a|ge(Bd efg)b|
!f!(edcd) (edcB)|(^AGFG ABcd)|!p!(edcd) (edcB)|(^AGFG ABce)|
!f!(dcB)c def=A|GBed (e^ab)c|(EdcB) (FcB^A)|BFDF B,2:|
|:[Bf]2|[eg]2(ef g^ab2)|(dfb2) (b^ab2)|ce=ac ^bdgf|(fede) c2ec|
(GABc =d)gbd|(cBAB c)eac|!p!(GABc =d)gbd|(cBAB c)eac|
!f!=dBGF (^EGB)d|cAF=E (=DCD)c|(Bagf) (cgf^e)|fcAc F2af|
df(Bc def)a|gb(ef gab)=d|ceAc (fga)f|(edc)d B2[EB]2|
[Ac]2(AB cdef)|dfaf (dB)(cA)|Geb2 (agfg) & x4 B2x2|eBGB E2||

